X: 929
T: All About Windmills
R: jig
M: 6/8
K: Dmajor
|:FAF FED|DED def|fee efa|baf edf|
edB DED|DED def|afe dBA|B2e dBA:|
|:E3 EFD|FAB def|fDD DED|DED fed|
BEE EFD|FAB def|afe dBA|B2e dBA:|
|:FAA BAA|dAA fAA|fee efa|baf edB|
F2A BAA|dAA fef|afe dBA|B2e dBA:|
|:e3 edf|edf BBB|ABd DED|DD/E/F ABd|
edf edf|adA Bde|afe dBA|B2e dBA:|

